src/Assets/icons/dropbox.svg

<svg fill="currentColor" xmlns="http://www.w3.org/2000/svg" class="svg-icon" viewBox="0 0 512 512" xml:space="preserve"><path d="m412.522 205.267 98.978-82.479-150.81-96.355-103.676 86.94-101.344-86.94L.5 127.507l106.858 81.29L.5 290.099l106.32 62.975 48.851 28.931 101.344-77.759 101.311 77.759 49.522-29.716 103.652-62.19-98.978-84.832zm-155.193-87.389L403.7 201.971 255.995 299.85l-146.787-92.477 148.121-89.495zm105.379 278.424 45.14-27.082v24.627l-152.2 98.721-148.828-99.394V369.96l44.513 26.375 4.955 2.926 4.573-3.497 96.153-73.78 96.12 73.78 4.607 3.52 4.967-2.982z"/></svg>

<svg fill="currentColor"  version="1.1" xmlns="http://www.w3.org/2000/svg" xmlns:xlink="http://www.w3.org/1999/xlink" class="svg-icon" viewBox="0 0 512 512" enable-background="new 0 0 512 512" xml:space="preserve">

<g id="1adf468c34277fe2a9aa3ee4b9003fb8">

<path display="inline" d="M412.522,205.267l98.978-82.479L360.69,26.433l-103.676,86.94l-101.344-86.94L0.5,127.507l106.858,81.29
		L0.5,290.099l106.32,62.975l0,0l48.851,28.931l101.344-77.759l101.311,77.759l49.522-29.716l0,0L511.5,290.099L412.522,205.267z
		 M257.329,117.878L403.7,201.971l-147.705,97.879l-146.787-92.477L257.329,117.878z M362.708,396.302l45.14-27.082v24.627
		l-152.2,98.721L106.82,393.174V369.96l44.513,26.375l4.955,2.926l4.573-3.497l96.153-73.78l96.12,73.78l4.607,3.52L362.708,396.302
		z">

</path>

</g>

</svg>
